public/static/img/assets/deposit_color.svg

<svg width="40" height="40" viewBox="0 0 40 40" fill="none" xmlns="http://www.w3.org/2000/svg">
<rect width="40" height="40" rx="16" fill="#46C1FF"/>
<path fill-rule="evenodd" clip-rule="evenodd" d="M16.133 15L20 19L23.867 15H24H29.5559C30.1386 15 30.6111 15.4725 30.6111 16.0553V19.2228H9.5V16.0553C9.5 15.4725 9.9725 15 10.5552 15H16.133ZM30.6111 21.3333V28.7226C30.6111 29.3054 30.1386 29.7779 29.5559 29.7779H10.5552C9.9725 29.7779 9.5 29.3054 9.5 28.7226V21.3333H30.6111ZM11.6114 25.0275H17.417V22.9179H11.6114V25.0275Z" fill="#171717"/>
<path d="M21.1114 13.2692V8.39103C21.1114 8.11105 21.0001 7.84253 20.8022 7.64455C20.6042 7.44657 20.3357 7.33534 20.0557 7.33534C19.7757 7.33534 19.5072 7.44657 19.3092 7.64455C19.1112 7.84253 19 8.11105 19 8.39103V13.3759L17.0172 11.3923C16.9192 11.2943 16.8029 11.2165 16.6748 11.1635C16.5467 11.1104 16.4095 11.0831 16.2709 11.0831C15.9909 11.0831 15.7224 11.1943 15.5245 11.3923C15.4265 11.4903 15.3487 11.6067 15.2957 11.7347C15.2426 11.8628 15.2153 12 15.2153 12.1387C15.2153 12.4186 15.3265 12.6871 15.5245 12.885L20.0027 17.3633L24.481 12.885C24.579 12.787 24.6568 12.6707 24.7098 12.5426C24.7628 12.4145 24.7901 12.2773 24.7901 12.1387C24.7901 12 24.7628 11.8628 24.7098 11.7347C24.6568 11.6067 24.579 11.4903 24.481 11.3923C24.383 11.2943 24.2666 11.2165 24.1386 11.1635C24.0105 11.1104 23.8732 11.0831 23.7346 11.0831C23.596 11.0831 23.4587 11.1104 23.3307 11.1635C23.2026 11.2165 23.0863 11.2943 22.9882 11.3923L21.1114 13.2692Z" fill="#171717"/>
</svg>

<svg width="40" height="40" fill="none" xmlns="http://www.w3.org/2000/svg"><rect width="40" height="40" rx="16" fill="#46C1FF"/><path fill-rule="evenodd" clip-rule="evenodd" d="M16.133 15 20 19l3.867-4h5.689c.583 0 1.055.473 1.055 1.055v3.168H9.5v-3.168c0-.582.473-1.055 1.055-1.055h5.578Zm14.478 6.333v7.39c0 .582-.472 1.055-1.055 1.055h-19A1.055 1.055 0 0 1 9.5 28.723v-7.39h21.111Zm-19 3.695h5.806v-2.11h-5.806v2.11Z" fill="#171717"/><path d="M21.111 13.27V8.39a1.056 1.056 0 0 0-2.111 0v4.985l-1.983-1.984a1.054 1.054 0 1 0-1.492 1.493l4.478 4.478 4.478-4.478a1.054 1.054 0 1 0-1.493-1.493l-1.877 1.877Z" fill="#171717"/></svg>
